svgs/sharp-light/scanner-touchscreen.svg

<svg xmlns="http://www.w3.org/2000/svg" viewBox="0 0 512 512"><!--! Font Awesome Pro 6.6.0 by @fontawesome - https://fontawesome.com License - https://fontawesome.com/license (Commercial License) Copyright 2024 Fonticons, Inc. --><path d="M128 0l0 64 32 0 0-64L128 0zM320 0l0 64 32 0 0-64L320 0zM224 0L192 0l0 64 32 0 0-64zM400 0l0 288 32 0L432 0 400 0zM512 0L480 0l0 288 32 0L512 0zM320 128l0 352L32 480l0-352 288 0zM32 96L0 96l0 32L0 480l0 32 32 0 288 0 32 0 0-32 0-352 0-32-32 0L32 96zm64 96l160 0 0 224L96 416l0-224zM64 160l0 32 0 224 0 32 32 0 160 0 32 0 0-32 0-224 0-32-32 0L96 160l-32 0z"/></svg>

<svg xmlns="http://www.w3.org/2000/svg" viewBox="0 0 512 512"><!--! Font Awesome Pro 6.4.0 by @fontawesome - https://fontawesome.com License - https://fontawesome.com/license (Commercial License) Copyright 2023 Fonticons, Inc. --><path d="M128 0V64h32V0H128zM320 0V64h32V0H320zM224 0H192V64h32V0zM400 0V288h32V0H400zM512 0H480V288h32V0zM320 128V480H32V128H320zM32 96H0v32V480v32H32 320h32V480 128 96H320 32zm64 96H256V416H96V192zM64 160v32V416v32H96 256h32V416 192 160H256 96 64z"/></svg>
